X:1
T:Untitled
L:1/8
M:3/4
I:linebreak $
K:C
V:1 treble 
V:1
 G2 G2 EF | G3 A G2 | c2 d2 B2 | cBcd c2 | G2 G2 EF | G3 A G2 | c2 d2 B2 | c4 :: cdefed | cB A4 |$ %10
 Bcdedc | BA G4 | AB c2 c2 | Bc d2 d2 | cd e2 fe | de c4 :| %16
